dist/img/sprites/easyStart.svg

<svg width="68" height="68" viewBox="0 0 68 68" fill="none" xmlns="http://www.w3.org/2000/svg">
<path d="M44.0653 35.7193C46.7949 36.3722 48.4725 39.0461 47.6244 41.907C48.8917 42.1192 49.951 42.6981 50.6708 43.7956C51.3827 44.8801 51.5649 46.0679 51.2472 47.3646C51.3948 47.411 51.5318 47.4541 51.6688 47.498C54.991 48.5532 56.0986 52.7507 53.7471 55.3409C51.9067 57.3685 50.0961 59.4237 48.2468 61.444C45.443 64.5074 41.9943 66.474 37.9797 67.4122C34.0264 68.3366 30.115 68.2333 26.3245 66.6488C21.1571 64.4879 17.8399 60.6359 16.2397 55.2531C15.4448 52.58 15.2263 49.8361 15.2795 47.0614C15.3118 45.3744 14.9402 43.7704 14.163 42.2907C13.506 41.0396 12.7523 39.8379 12.0042 38.6372C11.4068 37.6762 10.9828 36.6722 11.0005 35.5202C11.0296 33.6503 11.9123 32.2975 13.527 31.4406C15.1256 30.5926 16.6822 30.8089 18.1172 31.8381C19.698 32.9722 20.829 34.5185 21.8327 36.1689C22.2882 36.9177 22.738 37.673 23.245 38.3859C23.8916 39.2957 24.4744 39.451 25.5192 39.0664C26.7098 38.6282 27.707 37.8632 28.6857 37.0827C32.5939 33.9665 36.0845 30.3975 39.5719 26.8268C40.7311 25.6399 41.8371 24.4 43.0012 23.218C45.2745 20.9082 48.9626 21.4131 50.5604 24.2318C51.552 25.9813 51.3149 28.3203 49.9179 29.7747C48.1049 31.6625 46.2427 33.5015 44.4015 35.3624C44.2991 35.4657 44.2023 35.5738 44.0653 35.7193ZM24.4019 63.2716C24.4768 63.3212 24.5518 63.3724 24.6284 63.4204C28.3092 65.7017 32.294 66.3455 36.5069 65.5683C40.9471 64.7488 44.6361 62.5863 47.539 59.0839C47.8018 58.7668 48.0888 58.4685 48.383 58.1408C45.9614 57.3108 44.7425 55.6539 44.7707 53.0922C43.2987 53.0344 42.104 52.4328 41.2019 51.2906C40.2877 50.1329 40.037 48.7979 40.3127 47.3508C40.1757 47.3134 40.0741 47.2817 39.9709 47.2581C38.1845 46.8443 36.9696 45.7484 36.4279 44.0053C35.8854 42.2566 36.261 40.6428 37.5364 39.3136C38.9656 37.8242 40.4377 36.3779 41.8911 34.912C44.0185 32.7665 46.1508 30.6251 48.2718 28.4731C49.4713 27.2561 49.3052 25.3504 47.9316 24.3651C46.7981 23.5521 45.3946 23.757 44.3362 24.8399C41.2825 27.9658 38.2385 31.1015 35.1437 34.1852C33.2525 36.0697 31.2428 37.829 29.088 39.4079C28.0545 40.1648 26.9904 40.8729 25.7264 41.1924C25.5248 41.2436 25.3225 41.2891 25.1217 41.3371C25.1338 41.4379 25.1346 41.4932 25.1475 41.5452C25.6667 43.5606 25.2201 45.4029 24.1552 47.1297C23.8182 47.676 23.1975 47.8264 22.6912 47.5102C22.1914 47.1988 22.064 46.5744 22.3865 46.0134C22.4671 45.8728 22.5518 45.7354 22.63 45.5931C23.5812 43.8696 23.5054 41.833 22.3349 40.5387C21.503 39.6193 20.8395 38.599 20.2115 37.5429C19.3723 36.1323 18.4461 34.7933 17.1627 33.7462C16.4251 33.1438 15.6238 32.7665 14.6782 33.2072C13.7519 33.6389 13.1408 34.3364 13.0933 35.4177C13.0578 36.225 13.3698 36.9185 13.8196 37.5656C14.8233 39.0071 15.7205 40.5111 16.4073 42.1363C17.203 44.0184 17.3924 45.9955 17.3707 48.0166C17.3384 51.0792 17.7875 54.0596 19.0265 56.8831C19.5053 57.975 20.031 59.027 21.0604 59.7408C22.6445 60.8383 24.3188 61.4676 26.2479 60.8798C27.5974 60.4684 28.6631 59.6067 29.591 58.5652C29.9755 58.1335 30.3222 57.666 30.6785 57.2083C31.0791 56.6929 31.7128 56.5856 32.2053 56.9587C32.6479 57.2945 32.7237 57.9465 32.3762 58.4481C32.2682 58.6034 32.157 58.7563 32.0409 58.905C30.0948 61.4042 27.8038 63.2838 24.4019 63.2708V63.2716ZM45.7679 40.5656C45.7711 39.3542 45.1342 38.3729 44.1435 37.9608C43.1503 37.5478 42.2023 37.6599 41.4066 38.399C40.5771 39.1697 39.7839 39.9819 39.0116 40.8111C37.6581 42.2655 38.2917 44.5769 40.1902 45.1517C40.7093 45.3086 41.2696 45.411 41.7364 45.0492C42.7045 44.2996 43.6614 43.5314 44.5837 42.7257C45.2697 42.1257 45.7292 41.3688 45.7671 40.5656H45.7679ZM42.3015 48.0833C42.2966 49.6605 43.2463 50.7849 44.4692 50.954C45.0601 51.0353 45.5768 50.9377 46.0283 50.4418C46.8529 49.5361 47.7462 48.6939 48.6063 47.8199C49.5108 46.9012 49.5543 45.6061 48.7159 44.6915C47.9944 43.9037 46.6264 43.6891 45.6397 44.5801C44.8521 45.2915 44.0089 45.9411 43.1721 46.5939C42.5715 47.063 42.3111 47.6728 42.3015 48.0833ZM49.4173 56.1945C49.7841 56.0555 50.2379 56.0092 50.5015 55.7588C51.1626 55.1295 51.772 54.4352 52.3387 53.7165C52.9901 52.8897 53.1167 51.941 52.6725 50.9686C52.2323 50.0052 51.4544 49.4752 50.408 49.3939C50.2138 49.3784 49.9558 49.476 49.8131 49.6125C49.0642 50.3304 48.3419 51.0767 47.6115 51.8149C46.8836 52.5507 46.6748 53.5767 47.0609 54.5043C47.4576 55.4555 48.3983 56.1043 49.4173 56.1945Z" fill="#4B8125"/>
<path d="M12.967 14.0449C13.2371 14.2205 13.5482 14.3555 13.7715 14.5791C16.1738 16.9806 18.5616 19.396 20.9535 21.8082C21.6177 22.4781 22.2828 23.148 22.9438 23.8211C23.2469 24.1301 23.3179 24.5073 23.1865 24.9089C23.0583 25.3008 22.7649 25.5325 22.3642 25.6008C21.9587 25.6699 21.6387 25.4927 21.3573 25.2089C19.5089 23.3407 17.658 21.474 15.8079 19.6074C14.6123 18.4009 13.4176 17.1936 12.2205 15.9896C11.869 15.6359 11.7836 15.2246 11.9569 14.7644C12.1028 14.3782 12.4817 14.14 12.9654 14.0449H12.967Z" fill="#4B8125"/>
<path d="M40.1139 13.0556C40.1139 10.8881 40.1115 8.71988 40.1163 6.55244C40.1171 6.024 40.3888 5.65653 40.8539 5.51506C41.29 5.38255 41.752 5.51263 41.9874 5.90124C42.1131 6.10936 42.1945 6.3809 42.1953 6.62317C42.2074 10.9182 42.2074 15.2132 42.201 19.5083C42.2002 20.2034 41.7657 20.6619 41.1595 20.6603C40.5266 20.6595 40.1147 20.1961 40.1147 19.4774C40.1131 17.3368 40.1147 15.1962 40.1147 13.0556H40.1139Z" fill="#4B8125"/>
<path d="M27.9733 14.8315C27.4542 14.8119 27.1228 14.5046 26.9721 13.8949C26.6085 12.4274 26.2474 10.9592 25.8846 9.49172C25.2203 6.80641 24.5553 4.1211 23.8926 1.43497C23.7193 0.732547 23.9966 0.200851 24.6125 0.0366263C25.205 -0.121094 25.7403 0.240687 25.9112 0.926852C26.9366 5.05522 27.9612 9.18441 28.9818 13.3144C29.2083 14.2298 28.7819 14.8607 27.9741 14.8306L27.9733 14.8315Z" fill="#4B8125"/>
<path d="M31.4465 19.5496C31.7779 20.2179 32.0576 20.8163 32.3728 21.3943C32.447 21.5309 32.6316 21.6618 32.7847 21.6902C33.4151 21.8073 34.052 21.8837 34.7646 21.9862C34.3825 22.3715 34.0705 22.7593 33.6884 23.0536C33.1951 23.4333 33.0782 23.8577 33.2467 24.4471C33.3789 24.9105 33.4143 25.4016 33.503 25.9438C32.8968 25.6243 32.3204 25.3357 31.7617 25.0178C31.5352 24.8886 31.3619 24.8853 31.1346 25.0154C30.5759 25.3341 30.0011 25.6235 29.3828 25.9511C29.4949 25.2975 29.586 24.6877 29.7093 24.0853C29.7754 23.7642 29.7141 23.5447 29.4642 23.3097C29.0249 22.8984 28.6371 22.4317 28.2188 21.9797C28.7992 21.8927 29.4231 21.7821 30.0519 21.7122C30.3123 21.6829 30.4582 21.5846 30.567 21.348C30.8379 20.7618 31.133 20.1878 31.4474 19.5488L31.4465 19.5496Z" fill="#4B8125"/>
<path d="M18.5332 6.97852C18.8976 7.32648 19.2297 7.61834 19.5304 7.93947C19.7134 8.13459 19.9028 8.16548 20.1423 8.10939C20.5574 8.01183 20.975 7.92646 21.4756 7.81834C21.262 8.27849 21.0895 8.67929 20.8896 9.06628C20.7735 9.29148 20.7549 9.46871 20.9057 9.69716C21.1491 10.0654 21.3458 10.4663 21.5925 10.9061C21.0838 10.8427 20.6276 10.7671 20.1689 10.7402C20.0133 10.7313 19.8109 10.8061 19.6989 10.9142C19.3708 11.2313 19.0781 11.5841 18.7178 11.9809C18.6291 11.5044 18.534 11.0931 18.4816 10.676C18.4437 10.3744 18.322 10.1971 18.0294 10.0906C17.6408 9.94919 17.27 9.75488 16.8193 9.55001C17.2676 9.30042 17.6795 9.09311 18.0648 8.84514C18.1978 8.75978 18.3228 8.58174 18.3518 8.42727C18.4357 7.97687 18.4695 7.51672 18.5324 6.97933L18.5332 6.97852Z" fill="#4B8125"/>
<path d="M37.0548 8.73942C36.547 8.79308 36.1383 8.85243 35.7279 8.87519C35.4603 8.88983 35.287 8.97926 35.1669 9.23535C34.9782 9.63534 34.7509 10.0174 34.5107 10.4622C34.3027 9.99387 34.1406 9.56705 33.9238 9.17112C33.8359 9.01177 33.6424 8.85893 33.4683 8.81015C33.0451 8.69146 32.6041 8.63455 32.1035 8.54024C32.4889 8.18578 32.8411 7.88253 33.1644 7.55002C33.2668 7.44433 33.3442 7.25653 33.3361 7.11181C33.3095 6.64597 33.2378 6.18256 33.1741 5.63867C33.6304 5.90289 34.0125 6.14679 34.4171 6.34598C34.5574 6.41508 34.7727 6.43053 34.9161 6.37362C35.3378 6.20695 35.74 5.99232 36.2269 5.75899C36.1278 6.23622 36.0528 6.65166 35.952 7.06059C35.8851 7.33213 35.9125 7.53619 36.135 7.74107C36.4398 8.02155 36.7009 8.34837 37.0565 8.73861L37.0548 8.73942Z" fill="#4B8125"/>
</svg>

<svg width="68" height="68" viewBox="0 0 68 68" fill="none" xmlns="http://www.w3.org/2000/svg"><path d="M44.065 35.72c2.73.652 4.407 3.326 3.56 6.187 1.267.212 2.326.791 3.046 1.889.712 1.084.894 2.272.576 3.569l.422.133c3.322 1.055 4.43 5.253 2.078 7.843-1.84 2.027-3.65 4.083-5.5 6.103-2.804 3.063-6.253 5.03-10.267 5.968-3.954.925-7.865.821-11.655-.763-5.168-2.161-8.485-6.013-10.085-11.396-.795-2.673-1.014-5.417-.96-8.192a9.735 9.735 0 00-1.117-4.77c-.657-1.251-1.41-2.453-2.159-3.654-.597-.96-1.021-1.965-1.003-3.117.029-1.87.911-3.223 2.526-4.08 1.599-.847 3.155-.631 4.59.398 1.581 1.134 2.712 2.68 3.716 4.33.455.75.905 1.505 1.412 2.218.647.91 1.23 1.065 2.274.68 1.19-.438 2.188-1.203 3.167-1.983 3.908-3.116 7.398-6.685 10.886-10.256 1.16-1.187 2.265-2.427 3.43-3.609 2.273-2.31 5.96-1.805 7.558 1.014.992 1.75.755 4.088-.642 5.543-1.813 1.888-3.675 3.727-5.517 5.587-.102.104-.199.212-.336.357zM24.402 63.271c.075.05.15.1.226.148 3.681 2.282 7.666 2.925 11.879 2.148 4.44-.82 8.13-2.982 11.032-6.484.263-.317.55-.616.844-.943-2.422-.83-3.64-2.487-3.612-5.049-1.472-.058-2.667-.66-3.57-1.801-.913-1.158-1.164-2.493-.888-3.94-.137-.038-.239-.07-.342-.093-1.786-.414-3.001-1.51-3.543-3.253-.543-1.748-.167-3.362 1.108-4.691 1.43-1.49 2.902-2.936 4.355-4.402 2.128-2.145 4.26-4.287 6.38-6.439 1.2-1.217 1.034-3.123-.34-4.108-1.133-.813-2.536-.608-3.595.475-3.053 3.126-6.097 6.262-9.192 9.345-1.892 1.885-3.901 3.644-6.056 5.223-1.034.757-2.098 1.465-3.362 1.784-.201.052-.403.097-.604.145.012.1.013.156.026.208.519 2.016.072 3.858-.993 5.585-.337.546-.957.696-1.464.38-.5-.311-.627-.936-.304-1.497.08-.14.165-.278.243-.42.951-1.723.875-3.76-.295-5.054-.832-.92-1.495-1.94-2.123-2.996-.84-1.41-1.766-2.75-3.05-3.797-.737-.602-1.538-.98-2.484-.539-.926.432-1.537 1.13-1.585 2.21-.035.808.277 1.502.727 2.149 1.003 1.441 1.9 2.945 2.587 4.57.796 1.882.985 3.86.964 5.88-.033 3.063.417 6.044 1.655 8.867.48 1.092 1.005 2.144 2.034 2.858 1.585 1.097 3.259 1.727 5.188 1.139 1.35-.412 2.415-1.273 3.343-2.315.384-.431.731-.899 1.087-1.357.401-.515 1.035-.622 1.527-.25.443.337.519.989.171 1.49-.108.155-.219.308-.335.457-1.946 2.5-4.237 4.379-7.64 4.366zm21.366-22.706c.003-1.212-.634-2.193-1.624-2.605-.994-.413-1.942-.301-2.737.438-.83.77-1.623 1.583-2.395 2.412a2.633 2.633 0 001.178 4.34c.52.158 1.08.26 1.546-.102a62.177 62.177 0 002.848-2.323c.686-.6 1.145-1.357 1.183-2.16zM42.3 48.083c-.004 1.578.945 2.702 2.168 2.871.591.081 1.108-.016 1.56-.512.824-.906 1.717-1.748 2.577-2.622.905-.919.948-2.214.11-3.129a2.185 2.185 0 00-3.076-.11c-.788.71-1.631 1.36-2.468 2.013-.6.469-.86 1.079-.87 1.49zm7.116 8.111c.367-.139.82-.185 1.084-.435a19.456 19.456 0 001.838-2.042c.651-.827.778-1.776.334-2.748-.44-.964-1.219-1.494-2.265-1.575a.865.865 0 00-.595.218c-.749.718-1.471 1.465-2.202 2.203-.727.736-.936 1.762-.55 2.69.397.95 1.337 1.6 2.356 1.69zM12.967 14.045c.27.175.581.31.804.534 2.403 2.402 4.79 4.817 7.182 7.23.665.67 1.33 1.339 1.99 2.012.304.31.375.686.243 1.088-.128.392-.421.623-.822.692-.405.069-.725-.108-1.007-.392-1.848-1.868-3.699-3.735-5.55-5.602-1.195-1.206-2.39-2.413-3.587-3.617-.351-.354-.436-.765-.263-1.226.146-.386.525-.624 1.008-.72h.002zm27.147-.989c0-2.168-.002-4.336.002-6.504.001-.528.273-.895.738-1.037.436-.132.898-.002 1.133.386.126.208.207.48.208.722.012 4.295.012 8.59.006 12.885 0 .695-.435 1.154-1.041 1.152-.633 0-1.045-.464-1.045-1.183-.002-2.14 0-4.28 0-6.421h-.001zm-12.141 1.776c-.519-.02-.85-.327-1-.937-.364-1.468-.726-2.936-1.088-4.403-.665-2.686-1.33-5.37-1.992-8.057-.174-.702.104-1.234.72-1.398.592-.158 1.127.204 1.298.89a8610.34 8610.34 0 013.07 12.387c.227.916-.2 1.547-1.007 1.517z" fill="#4B8125"/><path d="M31.447 19.55c.33.668.61 1.266.926 1.844a.665.665 0 00.412.296c.63.117 1.267.194 1.98.296-.383.386-.694.773-1.077 1.068-.493.38-.61.804-.441 1.393.132.463.167.955.256 1.497-.606-.32-1.183-.608-1.741-.926-.227-.13-.4-.133-.627-.003-.56.32-1.134.608-1.752.936.112-.654.203-1.263.326-1.866.066-.32.005-.54-.245-.775-.44-.412-.827-.878-1.245-1.33.58-.087 1.204-.198 1.833-.268.26-.03.406-.127.515-.364.27-.586.566-1.16.88-1.8v.002zM18.533 6.979c.365.347.697.64.997.96.183.196.373.226.612.17.415-.097.833-.183 1.334-.29-.214.46-.386.86-.586 1.247-.117.225-.135.403.016.631.243.368.44.77.687 1.21-.51-.064-.965-.14-1.424-.167a.694.694 0 00-.47.174c-.328.317-.62.67-.981 1.067-.089-.477-.184-.888-.236-1.305-.038-.302-.16-.479-.453-.585-.388-.142-.759-.336-1.21-.541.449-.25.86-.457 1.246-.705a.71.71 0 00.287-.418c.084-.45.117-.91.18-1.448h.001zM37.055 8.74c-.508.053-.917.112-1.327.135-.268.015-.441.104-.561.36-.189.4-.416.782-.656 1.227-.208-.468-.37-.895-.587-1.29a.83.83 0 00-.456-.362c-.423-.119-.864-.175-1.365-.27.386-.354.738-.657 1.061-.99a.652.652 0 00.172-.438c-.026-.466-.098-.93-.162-1.473.456.264.839.508 1.243.707.14.07.356.085.5.028.42-.167.823-.382 1.31-.615-.1.477-.174.893-.275 1.302-.067.271-.04.475.183.68.305.28.566.607.922.998h-.002z" fill="#4B8125"/></svg>
